X:1
T:New Way to get Married, The
M:C
L:1/8
R:Reel
B:Stephen Grier music manuscript  collection (Book 2, c. 1883, No. 41, p. 8)
B: http://grier.itma.ie/book-two#?c=0&m=0&s=0&cv=7&z=-479.8556%2C42.7452%2C4235.3267%2C1481.5886
N:Stephen Grier (c. 1824-1894) was a piper and fiddler from
N:Newpark, Bohey, Gortletteragh, south Co. Leitrim.
Z:AK/Fiddler’s Companion
K:G
G3A Be e2|dBAc Be e2|GFGA BcdB|cABG E2 DE/F/|
GG A2 Be e2|dBAc BGAF|GFGA BcdB|cABG E2D2||
Bbba geef|g2 bg ea a2|Bbba gedB|cABG E2D2|
Bbba geef|g2 bg ea a2|bgaf gedB|cABG E2 DE/F/||

